data/icons/hicolor/scalable/apps/haguichi-symbolic.svg

<?xml version="1.0" encoding="UTF-8" standalone="no"?>
<svg
   xmlns:dc="http://purl.org/dc/elements/1.1/"
   xmlns:cc="http://creativecommons.org/ns#"
   xmlns:rdf="http://www.w3.org/1999/02/22-rdf-syntax-ns#"
   xmlns:svg="http://www.w3.org/2000/svg"
   xmlns="http://www.w3.org/2000/svg"
   version="1.1"
   width="16"
   height="16"
   id="svg6001">
  <metadata
     id="metadata14">
    <rdf:RDF>
      <cc:Work
         rdf:about="">
        <dc:format>image/svg+xml</dc:format>
        <dc:type
           rdf:resource="http://purl.org/dc/dcmitype/StillImage" />
        <dc:title></dc:title>
      </cc:Work>
    </rdf:RDF>
  </metadata>
  <defs
     id="defs6003" />
  <path
     id="rect4985"
     d="M 9 1 L 2.09375 8.5 L 4.5214844 11.123047 L 4.5292969 11.132812 L 9 16 L 14.025391 16 L 7.5585938 8.9746094 L 4.578125 11.082031 L 7.1191406 8.5 L 14.025391 1 L 9 1 z "
     style="color:#000000;display:inline;overflow:visible;visibility:visible;fill:#bebebe;fill-opacity:1;fill-rule:nonzero;stroke:none;stroke-width:1;marker:none;enable-background:new" />
</svg>

<svg xmlns:rdf="http://www.w3.org/1999/02/22-rdf-syntax-ns#" xmlns="http://www.w3.org/2000/svg" version="1.1" xmlns:cc="http://creativecommons.org/ns#" xmlns:dc="http://purl.org/dc/elements/1.1/" viewBox="0 0 16 16">
 <path style="color:#000000;enable-background:new" d="m9 1l-6.9062 7.5 2.4277 2.623 0.0078 0.01 4.4707 4.867h5.025l-6.4664-7.0254-2.9805 2.1074 2.541-2.582 6.9059-7.5h-5.025z" fill="#bebebe"/>
</svg>
